X: 57
T: The Yellow Start
N: Derived from pawnee57.krn
O: Oklahoma, U.S.A.
N: from Pawnee Music by Frances Densmore, 1926
Z: transcribed to **kern format by David Huron, August 2000
C: Skidi and Chaui Bands, 1919
L: 1/8
M: 2/4
Q: 1/4=88
K: C clef=bass
%%linebreak <none>
A,> E (3E D D [I:setbarnb 2]| 
C2C2 | 
C> E (3E D D | 
C2C2 | 
C> C C3/ A,/[M:3/4] | 
A,> B,A,2A,2[M:2/4] | 
C> C C3/ A,/[M:3/4] | 
A,> B,A,2A,2[M:2/4] | 
A,> C (3C A, A, | 
A,2A,2 | 
A,> C (3C A, A, | 
A,2A,2 | 
A,> E (3(E D) E | 
C2C2 | 
C> E (3(E D) E | 
C2C2 | 
(3E C C (3E C C | 
A,> A, B,3/ A,/ | 
A,2A,2 | 
(3E C C (3E C C | 
A,> A, B,3/ A,/ | 
A,2A,2 | 
A,> D C3/ A,/[M:3/4] | 
A,> A,A,2A,2[M:2/4] | 
A,> D C3/ A,/[M:3/4] | 
A,> A,A,2A,2 :|]  



